piano: (tempo 5) o1 a o7 a o2 b-16 o6 c+16/ o4 b16/ o5 f16 o7 a+16/ o7 d+8/ o4 a8 o0 f-8/ o4 d+4/ o7 e- o0 d8 o8 f-8/ o0 e+4 o8 b- o0 e-/ o3 a4/ o6 c8/ o0 c/ o0 d+4 o1 b16 o6 b/ o6 e8/ o2 b8/ o6 g-8 o0 c+4/ o5 d16/ o1 e-8 o5 c+ o0 d o2 d-16/ o5 a8/ o1 f4 o3 g o6 d16 o2 g-4/ o6 d4 o8 a+8 o5 e-16 o5 e+8 o4 a4/ o5 a-8/ o0 e+4 o6 d16 o4 a+8 o2 a-4 o8 c4/ o7 d8 o0 d- o2 f- o5 b+4/ o2 c o6 e16/ o8 f+/ o1 b-16/ o4 c16 o0 f+16/ o2 a4 o1 c-8 o4 a8/ o5 g+4/ o2 d-4 o2 c4/ o3 g-8/ o1 a8 o5 g-8/ o5 f/ o2 c16 o2 g+8/ o0 d+8 o8 g16/ o5 c16/ o7 a-16 o6 g8 o4 a-16 o4 e8/ o3 c-/ o6 e-16/ o5 a-8 o7 c4 o1 b- o4 f4 o4 g4/ o6 g8 o1 f+16 o2 b4 o8 a8/ o0 e16/ o7 b4 o3 f-8/ o7 d-4/ o8 b o3 c-4 o5 d-8 o0 d8/ o3 b o3 b/ o3 e o0 b-4/ o1 c+16/ o1 e+8/ o8 a o2 e-4 o2 f8 o4 a-16/ o8 f-4 o0 g16 o8 a16/ o2 g/ o1 b+8/ o6 f o2 d+4 o0 f4 o6 f8/ o8 e/ o7 g8 o4 b+4/ o4 c- o1 f+16/ o4 d+16 o6 c-8/ o6 e/ o3 a4/ o2 a-16 o5 c4 o7 g-8/ o7 e16 o7 f4/ o5 d16 o1 e16/ o3 f+16 o7 f o0 g-/ o8 e+4 o7 f8/ o3 c+4/ o8 g4/ o2 c4/ o2 c+16 o6 g-4 o2 a+8/ o3 b-/ o6 f+8/ o4 g-4 o8 e+4 o8 b16 o6 c+8/ o1 g16/ o1 g-4 o3 e-8/ o8 f16 o2 e8/ o4 c16/ o7 g o1 a+/ o2 d8/ o4 b-8 o8 g-/ o5 f4/ o5 c o1 f8/ o7 g o0 c+8 o5 e8 o6 d-16/ o1 e16 o0 a-4 o3 e o7 a4/ o6 g-16/ o8 c4 o5 a+16 o8 c-16 o5 g-4 o2 g- o6 a4 o4 d-/ o6 f/ o7 c16 o0 e-8/ o5 d+ o4 f-16 o1 g+/ o5 g+16 o5 e4/ o4 g+16/ o4 e+8/ o4 e4/ o3 a+4/ o6 d8/ o2 c-8/ o0 c+16 o7 a-4 o0 c4/ o6 g-4 o2 e+16/ o0 g o7 g+16 o5 c-16 o4 f+4/ o1 c-8/ o8 d+4 o6 f+8 o7 e8 o7 f+16/ o2 f-8 o3 e- o5 f+8 o4 b+4/ o2 b-16/ o6 b o0 d-16 o6 e+8/ o1 g-4/ o4 f o8 d o4 f+/ o1 e16 o7 g/ o2 e-4 o3 f4/ o3 g+8/ o6 b8/ o1 d8/ o4 a-16 o3 f8 o4 c o8 f o5 g+16 o1 d8 o3 f o3 e8/ o5 e16/ o1 a16/ o0 e-8 o0 e4 o2 b8 o4 a+/ o5 g o0 a/ o7 d+16 o7 g-16/ o3 g4 o3 c/ o2 d/ o8 g-8 o5 d8/ o6 b o0 d-8 o4 e-8/ o8 b16 o6 g8 o6 d8 o8 c4/ o3 e o5 d16 o8 f-16 o3 g8 o1 f16 o3 f/ o3 e8/ o4 c16 o5 g8/ o7 e4/ o8 f4 o5 d/ o0 e+16 o8 b+/ o1 d4/ o5 b+4/ o4 d+16 o8 e-/ o6 g+4/ o8 e+/ o0 b8 o8 g+ o7 a o1 b o3 a+4/ o6 g8/ o2 b8 o7 e+4/ o3 b4 o5 b8 o4 b-16/ o3 f+8 o6 c4 o7 d/ o2 b/ o1 c-4 o8 d-4 o6 b+ o7 e+8 o2 g-16/ o8 e8/ o8 b+16 o3 g+ o2 f16 o2 d16 o3 g+4 o2 c-4 o8 d16/ o2 e/ o8 c o8 c16/ o3 f8 o3 e-16 o2 d-8/ o7 a8 o0 b+4 o4 d4 o4 a16 o8 g- o3 d-8/ o6 g16 o3 b- o7 d-8/ o2 a-8/ o1 c8/ o5 g+ o3 b-16 o2 d+4/ o6 b16/ o8 c-16/ o4 d16/ o2 f+8 o4 f4/ o1 e+8 o6 d4/ o1 a4/ o2 e16 o1 e+16/ o6 f+16 o0 e+ o5 b8/ o3 c+4/ o7 e+ o2 c16/ o6 f16/ o0 b+16 o8 c+4/ o5 e+8/ o2 e+4 o8 b4/ o3 f-4 o7 e4 o1 e+4 o4 a-16/ o0 d+4 o0 e16/ o3 a+/ o3 e/ o7 a+/ o4 f+8/ o2 e+8/ o5 e o4 f8 o8 c-16/ o1 g4 o8 e4/ o5 e+8 o6 d16/ o2 d+ o3 d+16/ o7 f- o4 e8 o1 b16/ o3 g o8 d8 o3 b8/ o8 c/ o1 d8/ o1 f8 o7 d/ o0 b16 o6 g o4 c16 o5 e8/ o8 a+ o7 e8/ o3 d- o7 d-4/ o8 c/ o8 d16/ o3 f-4 o8 g8 o4 f8/ o6 d8 o4 e- o5 c4/ o2 e o1 a+4 o7 d16/ o5 g+8 o3 a-4 o8 e+4/ o1 b16/ o0 d4 o0 f-16 o8 b o1 e16/ o5 f+8 o4 b o4 f/ o8 e+/ o4 f-/ o6 f+8 o5 g16/ o4 b+8/ o6 a16/ o0 e+4/ o8 a/ o2 g/ o1 b- o3 e o8 c4 o8 f-/ o7 f+ o4 a-/ o2 e/ o1 f- o2 d- o4 f+4 o4 d16/ o5 d4 o0 c+8/ o5 g16/ o8 b8/ o8 a/ o1 c+8 o5 g+8/ o7 a8/ o2 g+ o2 a8 o2 f-8/ o0 g4/ o0 d8 o5 d4 o3 g8 o3 f16/ o0 d+8 o4 f- o5 f+4/ o6 c8 o6 g-16/ o3 e16 o2 a+4 o3 d+/ o3 f16 o4 b+8 o1 b-4/ o1 a+16/ o1 a-4/ o3 c o0 d+ o8 f o0 a4 o7 d+/ o1 b4 o3 a-16/ o4 a16 o0 g+16 o7 a-16/ o3 b4 o4 b/ o5 g+4 o3 a-16/ o7 c16/ o2 b4 o2 b-16/ o5 g- o6 d o0 d+8/ o6 c-8/ o7 g+8/ o3 e/ o3 d o2 f/ o6 d8 o5 c16 o6 f-8 o1 a4/ o5 c+8/ o5 b4/ o5 a o7 b o5 f4 o4 d-8/ o4 d+16/ o7 a4 o3 d8 o1 a-/ o0 a4/ o7 g4 o2 g-8 o2 b8/ o0 f+8 o7 g16 o7 c o3 d+4/ o6 e+16 o8 b4 o1 f8 o1 b+16 o5 f-8 o8 c-8 o1 a4/ o7 g/ o6 e-4/ o7 b+16 o1 e+16/ o8 d-8/ o3 d o3 e+4/ o3 b8/ o7 g o8 a16/ o6 f-/ o6 g o2 d4 o0 f+16/ o5 e8 o0 e o6 g/ o8 c4 o2 e-8/ o8 c8/ o7 b16/ o8 g+4 o4 g+4/ o3 d16/ o2 f-/ o4 g4/ o1 f16 o8 b16 o3 a-16 o5 e o7 a- o5 e16/ o0 f+16 o8 a4/ o7 c16/ o1 g+4/ o7 f+4 o7 c/ o3 g/ o8 g16 o5 a o8 b4/ o3 b o0 c-/ o4 b16 o7 d-4 o4 f4/ o0 d-16 o3 f8 o3 a8 o7 g16/ o8 e-8/ o2 c-/ o1 g+ o0 c+4/ o1 b-/ o7 g+16/ o1 d/ o8 d- o0 g/ o3 b+8/ o0 b16 o5 c/ o2 c- o6 b+8 o0 g+8/ o2 a-8/ o5 e- o6 g-8/ o8 g8/ o6 c+4/ o7 d8 o7 d-4/ o1 d-8/ o6 c+ o3 b16/ o3 g4 o3 e4 o1 b-8/ o0 d16 o1 c/ o4 a8 o0 d-4 o2 c+8/ o6 e16 o0 e-8 o2 g-4/ o2 e4 o1 g4 o7 g-4 o0 a+16 o8 d-8 o1 b4 o4 e-16 o3 b16/ o6 f/ o6 g-16/ o8 d+8/ o0 e-16 o7 a+4/ o5 e o5 g-/ o1 e+/ o5 b-8/ o5 d16 o8 d-/ o7 e4 o1 f8 o6 e16 o5 d o4 b/ o6 b+4/ o7 d+16/ o2 f-8 o6 d- o3 d- o5 f8 o4 a+/ o4 b-8/ o2 g-4/ o6 d-8 o5 c+/ o2 b8/ o4 b/ o1 b/ o5 b-/ o8 g8 o4 a8/ o7 f-4 o2 a-8 o3 a o6 f8/ c

piano: (tempo 5) o2 g-/ o0 f4 o0 g8/ o0 a o0 e-4/ o2 e+8 o1 d- o0 d-4 o2 g4/ o2 c/ o0 b+/ o1 d-8 o2 f+/ o1 c4/ o0 d4/ o1 d+ o0 d+4/ o1 c-4/ o0 f4 o2 d4 o1 e4/ o0 a/ o2 f8/ o1 g-8 o0 a+8/ o1 d8 o0 g/ o2 e4 o2 e+8 o0 e+4/ o0 a+/ o2 c-4 o1 b8 o1 f+8 o0 e4/ o1 f4/ o0 g4/ o1 f-/ o1 g+ o2 a4/ o2 e8/ o0 c4 o1 f- o1 a+8/ o1 e o2 a+/ o2 e-/ o0 e+/ o2 b+4/ o0 e/ o0 d+4 o2 c8 o1 e8 o0 b+4/ o1 e8/ o1 b o0 g- o2 d4/ o0 c-4/ o1 c/ o2 a8 o0 a+/ o2 g-8/ o2 a o1 g8/ o1 e+ o0 f+ o0 f+8 o2 a4 o0 d8 o0 c4/ o0 e+8 o2 g8 o2 b4/ o0 f8/ o2 e/ o0 f o2 a-4/ o2 b4/ o2 g8/ o2 a o0 c-8/ o0 c-4/ o0 e8/ o0 d+4 o0 f/ o0 f4/ o1 d/ o2 e8 o0 b8 o0 e- o2 g-8/ o2 f8 o2 d+/ o0 b4 o0 c-4/ o2 e-/ o1 g8/ o0 e8 o0 b+/ o2 a8/ o1 f4 o2 d-8/ o1 f-8 o1 a+4/ o2 f-8 o1 e8 o2 a+ o0 b4 o2 g o2 a4/ o1 f-8/ o0 b/ o1 c8 o2 b4/ o2 e-/ o1 c-4/ o1 b4/ o0 c+ o0 b+ o2 a+ o1 b-4/ o1 f-/ o2 c-4/ o1 b4/ o1 d+4 o2 c- o0 c+4/ o1 b8/ o0 b+4 o2 a-4/ o2 a o2 b o1 c-4/ o2 f-4/ o2 d/ o1 c+8/ o0 c o0 f- o0 d o0 e4/ o0 f- o0 b4/ o0 a+8 o2 g o0 b-4/ o1 g o2 f8/ o2 a+8/ o2 d+8 o1 a8 o2 f-4/ o0 f+4/ o0 d4/ o1 g8/ o0 g+8 o1 g+4 o1 a8/ o1 a8 o2 d/ o1 e4/ o1 b+/ o1 e-8 o2 f-8/ o2 g-8/ o2 e+/ o1 g-4/ o0 f8 o2 d+8 o0 a8 o2 g4 o1 a8/ o1 e8/ o1 e4 o0 c4 o1 c-/ o2 c8 o2 e- o0 e- o0 c-8 o2 c+4/ o1 a+8/ o1 b o1 e+8 o0 b8 o0 a-/ o0 d/ o2 d+4/ o2 f/ o1 c-8 o1 f-8/ o0 d+4/ o0 d+ o2 d-4 o1 b o0 c+ o1 c+ o1 b+/ o2 d4 o2 b4 o0 f4 o1 b/ o2 e+ o1 d-8/ o1 a+8 o1 e8 o1 d8 o2 e/ o2 f/ o1 b8/ o2 d+4/ o1 g8 o2 f-4 o0 e o0 d4/ o2 d8/ o0 a-/ o2 f4 o0 c4 o0 g+ o0 g+ o1 a+8 o1 c8/ o1 f4 o0 e8 o0 b+4/ o2 b8/ o0 f4/ o1 a4 o1 d4/ o2 e4/ o1 c-/ o0 c o2 c-/ o0 g4 o2 g+8/ o2 e o0 g+ o1 b/ o1 b+8/ o0 f4 o2 e+4/ o1 e8/ o1 f+8 o2 c4/ o2 e-4/ o1 a+8/ o2 d/ o2 f4 o1 b-4/ o2 f4/ o0 a- o1 e-/ o0 b+ o1 e+8/ o2 b8 o2 d+4/ o2 c-8/ o0 a-/ o2 a+8 o2 c-8 o1 g8 o0 c4 o0 f-4 o0 f+8 o2 b8 o0 f8/ o1 b4/ o0 f4/ o2 c o0 a4 o1 f+/ o1 e+4/ o1 a-/ o1 c4/ o2 c+8/ o2 e4 o0 e-4/ o2 c+4 o0 d4 o0 d8/ o1 e4 o0 f+4/ o2 d-4 o1 e-8 o0 d o2 a o0 f8/ o0 d8 o2 b+4/ o0 c+ o0 a o2 f8/ o1 g o0 b-8/ o1 f-8/ o0 a8 o2 f+8/ o1 d+/ o2 a+4/ o0 c4/ o0 c4 o1 c4 o2 f4/ o1 a4/ o0 e-8 o2 b+8/ o0 a+4/ o2 b4 o1 c+4 o1 c8/ o0 c8/ o1 d4 o2 b8/ o2 d4/ o0 c-4 o1 e o1 c-8 o0 g+4 o0 g-4/ o2 b/ o1 d8/ o2 c/ o0 g- o1 d o2 a-8/ o1 g- o2 a/ o1 a+/ o0 d+4 o1 f8/ o0 g-4/ o2 f+8/ o2 e+/ o2 a+4/ o1 g o2 c/ o2 b4/ o2 g8/ o1 c-/ o2 a+8/ o2 e4/ o1 e+/ o1 e-4/ o1 c o0 b8 o0 g4 o1 e4/ o0 b- o1 d o1 g4 o1 d4 o1 b4/ o0 f+8/ o2 d- o0 e-4 o1 e o0 e-8 o0 a-8 o1 f o1 d4/ o0 g-4 o1 c-8 o1 a-8 o1 c o0 a o2 d8/ o0 a-8/ o0 b-4/ o0 a- o2 d4/ o0 f4/ o1 g8/ o1 e o2 e8 o1 c-/ o0 d8/ o1 c4 o0 d-4 o1 a4 o2 a8 o0 f4 o2 b8/ o2 b-8 o1 b+/ o2 d+4/ o0 e/ o0 e4 o2 d o0 b+ o1 f4/ o2 g+4/ o2 f-4 o1 g-8/ o1 e+ o1 f+4/ o2 g+8/ o0 b+8 o2 d-8/ o2 g+ o0 c/ o1 c8/ o1 a+8/ o0 f+8 o1 a+4/ o1 f+4/ o2 c-4 o2 c8/ o1 e- o0 f-4 o0 a-8 o0 b+ o1 a/ o0 c+8/ o2 a-8 o1 e-8/ o2 e8/ o1 g8/ o1 e8/ o2 b+ o1 g/ o1 e-/ o2 c8/ o2 a-4 o0 f8 o0 g+/ o1 d8/ o1 e-4/ o1 c8/ o0 g+ o2 c4/ o0 g-4/ o0 a- o2 a+4/ o2 f+4 o0 b+/ o1 d4/ o2 e o2 d-4 o1 d/ o2 b+8 o1 b4 o1 d-/ o0 b8 o0 g+4 o0 b4/ o0 a8 o1 b8/ o2 e+8/ o0 d+ o1 d o2 f4 o1 c4/ o2 f4/ o2 f o1 f+8 o2 f-4 o1 e/ o1 e+8/ o0 e8/ o0 b/ o1 a4/ o2 b8 o0 e+8 o1 g4 o1 f/ o1 b+8/ o0 a+4/ o1 d o0 d+/ o0 c+/ o2 b+4/ o0 g-4 o2 a o2 b+4/ o1 g/ o0 a/ o1 b8/ o1 a/ o2 a4 o1 d+4 o0 a+ o2 g-8/ o0 f+4/ o1 f4/ o0 c4 o2 e8 o2 f/ o0 b4 o0 a o0 f4 o2 f4 o0 b- o1 g/ o0 b-/ o0 d8 o1 a8/ o2 b4/ o0 e+4 o1 d+4 o1 a+8/ o1 c8/ o1 c-4 o2 f- o2 a o1 g o1 f+8 o1 b/ o0 c4 o0 g o2 c+8/ o1 g8 o2 b-/ o2 e+8/ o1 b4/ o1 d+4 o2 c+4/ o2 c+8 o2 g-4 o1 f+ o2 c4 o0 a8 o1 b+8 o0 e4/ o1 b8 o1 c+ o1 g+8 o0 a-4 o1 c8/ o2 a o0 d/ o1 d+4/ o2 a-4/ o1 b-4 o2 d+/ o1 d8/ o2 b+4 o0 f4/ o2 f/ o2 c o1 g/ o1 d4/ o0 e-4 o0 b+8 o2 c-8 o2 e+ o2 g8 o0 a+8/ o1 g+8/ o0 c/ o0 c8 o0 g8/ o1 c8 o0 c/ o0 a-4/ o0 c-/ o1 d-4/ o1 a/ o2 b8/ o1 g/ o0 g8/ o1 d+ o0 f-4/ o2 e-4 o0 c4/ o0 c-4/ o2 g4 o0 f8/ o1 d8/ o1 e+8 o2 c/ o2 e+4/ o2 a o2 a+8/ o0 b+/ o1 e+8/ o0 c+/ o0 c-8 o0 e+4/ o2 d- o1 a4 o0 e-8/ o0 f+4/ o2 d+ o1 e+8 o2 g/ o1 a+8/ o1 e+8 o2 e/ o2 g4 o1 b/ o0 f4 o2 f8 o1 a-4 o0 a-8 o2 e-/ o2 f8/ o1 a-8 o1 d-8 o0 f+/ o0 g4/ o0 d+8 o2 e+4/ o2 c4 o1 b8/ o1 g-4/ o2 f+4 o2 c4/ o0 g4/ o0 g4/ o0 a4/ o1 a o2 c+8/ o1 a8 o1 d+ o2 a+/ o1 b/ o1 d o2 d+ o1 d4 o0 e-/ o0 c/ o1 a8 o0 e-8/ o0 d4 o2 e o2 f+8/ o2 a8/ o1 f4 o2 d- o1 e+8 o0 a4/ o0 e4/ o2 b-4/ o2 f+8 o0 b-8/ o1 b/ o1 e8/ o0 f+4/ o1 f4 e

piano: (tempo 5) o5 b16 o1 c+ o2 b-16 o4 b-4 o2 g8 o5 d8 o1 a16 o5 g4 o1 d+ o1 d o4 a4 o0 b+16 o1 f-16 o4 e- o2 d-16 o2 f+16 o1 d+ o3 f- o4 c+4 o0 b+8 o3 e4 o0 b+8 o1 b-16 o3 b8 o2 f o3 a+4 o0 e o4 a+16 o0 f8 o0 e o2 f o1 d+4 o3 a-8 o0 c16 o2 g o1 e+8 o2 b o2 g16 o5 g-16 o2 f o5 a+16 o4 b4 o1 g-4 o0 d o4 c8 o2 b+16 o0 c+8 o2 c8 o1 f-16 o5 a o0 a8 o1 d-4 o5 c o1 c16 o5 d o0 f o0 c4 o5 g+ o5 a o1 d4 o5 f o4 g16 o1 a o4 g o5 f+16 o2 e16 o1 g16 o3 b+16 o5 f8 o4 c8 o5 g+4 o5 e16 o2 e+16 o2 d-16 o3 b16 o4 d4 o5 b+16 o0 a-16 o0 c16 o2 e4 o2 a16 o5 c+16 o3 g-4 o2 a o4 b+8 o5 g o1 d8 o2 g8 o2 a16 o1 g8 o5 d4 o2 e16 o2 e4 o2 f o1 f o4 f-16 o0 b-4 o4 a+8 o4 e+8 o5 a4 o0 b-4 o5 e-8 o5 d o4 c4 o0 f16 o2 a+8 o1 a o0 f16 o3 e o2 c+16 o0 d+4 o3 g+ o0 e-8 o0 e8 o3 e4 o1 c-16 o4 d-16 o5 e+ o2 g+16 o5 b- o3 b-16 o1 b o2 d16 o0 b-16 o3 d+4 o1 d4 o5 b4 o0 d4 o4 d16 o2 e- o0 a8 o2 f4 o1 g o3 b+16 o2 a-4 o2 g4 o0 e16 o0 b+4 o5 d8 o3 c+16 o2 g o0 e+ o5 g- o1 g4 o5 a+16 o5 a-16 o5 e-4 o2 d- o5 d+ o0 e8 o5 b4 o0 g16 o0 a16 o5 a4 o2 c16 o2 e+ o2 c4 o2 c8 o0 c16 o1 g+16 o0 a16 o2 f16 o3 d-8 o2 g+ o5 b-16 o3 c16 o5 a+ o3 b8 o4 c8 o5 b-16 o2 d16 o5 b-8 o5 e4 o3 c+8 o1 d+4 o1 d o5 c+16 o4 b8 o3 d o1 a4 o4 g8 o2 c4 o5 d+8 o0 g-8 o3 e o1 b8 o2 c+8 o5 b-16 o2 g-16 o0 b8 o1 f+8 o1 d16 o2 g-16 o1 e16 o0 g-8 o4 b8 o0 f-16 o4 a- o2 a8 o4 c8 o0 f8 o5 d4 o4 c+4 o0 e- o1 b8 o4 a-4 o2 a+16 o3 b4 o1 b4 o5 f16 o1 a- o4 g-8 o3 c16 o2 d o4 b-8 o2 d-16 o0 d o2 b4 o2 c16 o2 d16 o0 g-8 o5 b o1 f8 o1 c+16 o3 b4 o5 g+16 o3 d16 o4 b o2 g-16 o2 f o1 d+ o3 e o1 a4 o0 f-8 o3 c16 o3 d4 o5 g-8 o2 g8 o5 a+16 o5 e16 o1 b+16 o4 d4 o4 a4 o0 e8 o1 e+ o5 f4 o5 b o0 c+8 o0 e+16 o4 b+16 o1 a o2 a4 o0 e-4 o3 c4 o1 a4 o0 g+4 o4 d+4 o5 f8 o5 e- o3 d-16 o4 f8 o0 e- o4 e16 o2 g-4 o4 g4 o4 c+ o1 g-16 o2 b o1 a8 o0 g+4 o4 a-8 o3 g-8 o4 a4 o5 e+16 o0 a-4 o5 f8 o0 e+16 o3 g+8 o2 f8 o1 g8 o1 c+8 o5 f+16 o4 g+16 o0 f+ o3 g+4 o0 d-4 o2 a-16 o5 e8 o5 f8 o3 a o0 e8 o0 b o5 d o2 g16 o5 d8 o1 e8 o4 f-8 o5 f+ o1 e+16 o4 f+ o2 f o4 f4 o1 a8 o3 e+4 o1 d-8 o4 d+8 o0 b16 o1 f-8 o0 e+8 o2 d-4 o2 b8 o0 b-4 o3 c4 o4 e16 o5 a16 o0 c o4 g4 o3 a+4 o2 c-16 o0 f16 o4 d-16 o5 e16 o5 c-4 o0 b4 o1 g16 o3 c o0 d8 o3 g o0 c+8 o0 f o0 e4 o2 c+8 o2 d-4 o5 c+ o2 b+4 o2 c4 o2 g-8 o5 b-16 o2 f+8 o0 b+ o3 b4 o1 d+4 o2 a16 o2 c+4 o5 f8 o1 g+4 o3 f16 o4 f+16 o5 c+16 o1 f4 o1 d+4 o1 e8 o3 f16 o0 b+16 o3 f- o3 a o3 d16 o1 b4 o0 a4 o3 c+16 o0 c16 o3 g-16 o2 f16 o1 e o0 f o4 a-8 o1 c+8 o4 g-16 o4 b4 o5 d8 o5 b-16 o4 b o5 g+4 o3 e-16 o2 g+4 o4 a8 o3 e16 o3 f+4 o3 g8 o1 e o0 g-16 o2 g8 o4 c o4 g-8 o1 e+16 o4 c-8 o2 d8 o5 f4 o0 e+4 o3 e-8 o4 c- o2 b8 o4 b-16 o5 e o2 c+ o2 g- o0 f-8 o1 a+4 o2 e+4 o1 c4 o2 c o1 e- o4 b-16 o1 f8 o5 g4 o4 c- o3 b16 o4 a-4 o5 e-8 o3 d16 o2 f8 o0 c4 o1 d4 o0 f16 o4 e4 o0 a16 o4 b-4 o0 a+8 o0 a-8 o1 g8 o4 c16 o5 e+8 o3 f+ o1 a-4 o3 e16 o5 b o2 e+8 o1 d8 o0 e8 o2 a-16 o2 a-8 o1 g- o5 c-16 o3 g8 o3 g4 o5 f4 o5 a+ o3 d+4 o4 a+ o4 c16 o5 f4 o2 c16 o3 a-4 o0 d o2 e+ o5 c+ o5 d16 o2 e o2 d o4 b o5 g o0 e-4 o2 g+ o4 e-16 o2 d+16 o0 c- o1 f-16 o5 d-8 o3 f+16 o3 g+ o1 a-16 o1 d4 o5 a+ o1 e-16 o2 a+16 o0 e8 o3 d o0 e+4 o0 c4 o2 b- o0 b+16 o4 d+ o2 g8 o0 g8 o3 g4 o4 a+8 o2 a-8 o3 e4 o4 e+ o2 g-16 o1 g8 o2 b-8 o0 f16 o5 b o5 f o2 b o0 a+4 o3 e16 o0 b-4 o4 g+ o0 c o4 f+8 o1 g+4 o1 a+4 o0 d8 o3 c16 o3 e4 o0 a+16 o0 d+8 o0 a16 o1 a16 o4 f-4 o2 f16 o2 f-4 o1 a16 o3 e+ o0 f-16 o5 g-8 o3 e+16 o4 c8 o5 a4 o4 g-16 o4 d-8 o3 b16 o5 d16 o1 a-16 o5 a+16 o3 e8 o4 c-16 o0 d4 o1 c+4 o1 f16 o1 g- o4 g+ o4 f-4 o0 f-4 o2 g+8 o0 f8 o3 e+8 o0 c o5 g+16 o3 d4 o5 f4 o2 e+8 o0 d4 o0 f-16 o2 b4 o3 a o1 b-16 o2 f16 o3 c16 o2 d+4 o0 f+8 o1 c-8 o4 e-16 o0 c o1 c-16 o3 d8 o5 c16 o0 a8 o2 b8 o2 g16 o2 d+ o4 c4 o5 b+16 o4 e+16 o4 b- o0 e+4 o1 f8 o0 a+ o4 d4 o2 a4 o0 g4 o0 b16 o2 f16 o2 c+4 o1 e4 o5 d-8 o3 b-4 o4 f8 o5 b o5 d-4 o3 e-4 o5 g-8 o2 a+16 o2 c+8 o0 b+8 o0 d8 o0 b4 o4 a o4 b16 o0 e+ o4 b4 o2 a4 o5 g o3 a16 o3 d4 o1 f-8 o1 c-8 o0 g8 o4 g+8 o3 g+8 o2 c+16 o5 a-8 o0 d16 o0 b4 o1 g+4 o0 f-16 o4 c o2 g-16 o3 b-16 o4 a o1 f-16 o3 a4 o0 e+4 o1 d+16 o5 f o0 f16 o0 e+16 o0 a+4 o4 g o3 f+ o5 e4 o4 c4 o0 d16 o4 d-16 o5 g8 o3 d+8 o1 d+8 o1 c+4 o0 f16 o4 c8 o0 g16 o2 b8 o5 c o4 c4 o1 d+16 o5 e+4 o4 c-8 o5 b-16 o3 c+16 o5 e+8 o3 e o1 a16 o1 g16 o4 d o2 b4 o1 e4 o3 a o2 f-16
