piano: (tempo 5) o5 g+16/ o2 a8 o6 g+8 o6 e8/ o8 d-/ o3 f-8 o7 d4 o6 a4/ o3 a16 o6 a o4 d o7 d+4 o4 g+16/ o6 a8/ o7 f- o8 b- o8 e+16 o8 b8 o2 g16 o4 c- o7 c16 o5 a8/ o8 f4 o7 g-/ o5 c-8/ o8 b-16 o8 d o8 f8/ o3 g4/ o4 a-16/ o4 d-16 o2 f16/ o3 f16 o2 e-/ o4 d-4/ o3 c16 o5 f+16 o7 a-8/ o2 e-4/ o8 a+ o2 f+ o7 c8/ o6 d+8/ o6 e16 o6 g+16/ o4 b-8/ o5 d8 o6 e4 o7 b-4 o5 f-/ o5 c o7 g-16 o7 a+16/ o6 b+ o3 b+/ o7 e4/ o2 g4/ o4 e-8/ o7 e4/ o3 b4 o4 d o5 a-/ o2 e+/ o7 e8 o3 e+4/ o8 c/ o7 b-4/ o8 d-16 o7 b-4/ o2 g-8/ o4 g+16 o5 b o2 e/ o2 g+16 o4 f+ o5 f-8 o8 e+/ o3 d o2 g/ o7 g+4 o4 a+16/ o7 f o2 e+ o5 g+ o3 f-8 o4 g-4/ o7 b16/ o3 f-16 o3 f-8 o3 b-4/ o7 c-16/ o6 d-16/ o4 e+16 o2 c4 o5 a/ o4 g+4/ o5 c4 o8 e+ o6 e o4 c+16 o4 g+8/ o5 b-16/ o2 f+16/ o2 e o2 c8/ o2 d16/ o8 b+/ o5 d-16 o8 f4 o8 c+16 o3 c+16/ o8 d8/ o6 d-4 o5 e-16 o6 b+4 o6 b+16 o2 f+16 o2 g- o4 b-16 o8 b/ o8 c o6 d+16/ o6 a4 o5 c+4/ o4 f+16/ o7 g-/ o4 g8 o6 d-8 o2 f+8/ o2 e16 o2 b+ o6 a-8/ o6 g+4/ o5 b+/ o2 d4/ o7 d+16 o2 f-4/ o8 c/ o5 g+4/ o2 d+16/ o2 f16/ o4 a/ o3 b/ o6 d4/ o7 g-8/ o3 b+16 o4 f-16 o3 g16/ o8 f8 o8 e+16 o5 a+ o5 a-8 o4 d+8 o4 c16/ o5 e+16 o4 a4 o4 d+4/ o2 e8 o2 b o8 b+/ o5 c-4 o8 b8 o2 c8 o5 c-8/ o4 g+/ o6 a4 o8 f+8/ o7 b-16/ o7 f4 o5 g o8 g-16/ o4 e-16 o5 c+8/ o2 f+16 o6 d16 o5 a o6 g8/ o6 a8/ o4 e o2 e4/ o5 c4/ o7 e- o5 b-16/ o7 f-16 o5 b-4/ o7 a+8/ o5 a/ o2 d/ o2 g-8/ o8 g4 o8 f o5 b8 o3 c4 o2 d16 o4 g4 o6 a-16 o8 e+/ o5 a-8 o7 b+4 o6 a+16 g

piano: (tempo 5) o4 f- o3 e4 o4 a-8 o4 c8/ o2 a-/ o3 e+4 o2 g4/ o2 a-8 o3 e8 o2 a+4 o2 c+8/ o3 b-8 o3 f/ o2 b+4 o4 f-/ o3 f- o4 b o3 f/ o4 g-/ o4 b4/ o3 d4/ o4 b-8/ o4 b+4/ o3 e-4 o4 g-8 o2 g+4 o4 f- o4 g/ o4 a o2 e-8 o3 c/ o2 c8/ o3 g4/ o4 c4 o2 f/ o2 e/ o3 a8/ o2 e-8/ o3 g-4 o2 d4/ o2 c+ o2 b4 o4 d8/ o4 d+4/ o2 f-8 o2 c-8 o4 d+/ o4 g o3 g+ o3 e-8 o3 g+ o2 a+8/ o3 c/ o3 g4/ o2 c4 o2 c4/ o3 g-/ o4 d o3 b-4/ o4 g/ o4 e o4 g+/ o3 b+8/ o4 f+4 o3 f8 o4 c+8 o3 f+/ o4 a/ o3 b/ o2 a-4/ o2 a8/ o4 a4/ o2 g8/ o4 d o2 d o4 f-8/ o4 f4/ o3 c/ o2 g+4/ o3 d4 o4 d4 o4 a- o2 c-/ o4 f4/ o3 f o3 a+4/ o4 b-/ o3 e o2 f4 o3 a4/ o4 c- o2 e8 o3 b+4 o2 e4/ o2 f/ o4 e+ o2 a-/ o2 d+8 o3 f4 o4 d+8/ o2 c o2 d/ o3 a4 o3 d-4 o4 c4/ o2 f8 o4 e+/ o4 a4 o2 f+4 o4 b+/ o4 b4/ o3 g-4/ o3 g+ o3 f+/ o2 e8 o4 g-/ o4 f+4/ o3 b+ o3 c+4/ o3 g- o4 c o2 e8 o4 d8 o3 g4/ o4 f-8 o4 d8/ o3 d+8/ o4 d+4 o3 f8/ o3 e8 o4 c+4 o4 b+4 o2 d-4 o2 b+4/ o4 c8/ o4 b o3 c+8/ o3 c o4 d/ o4 f8/ o3 e+8/ o4 d/ o2 f-/ o3 a-4/ o2 f- o3 b8 o2 f8/ o2 c+4/ o2 e-4/ o3 e+/ o2 g-4 o2 b-4 o2 a+4/ o2 a8 o3 a-/ o2 c-8 o4 a4 o4 b8/ o3 f4 o3 a+4 o4 a4 o3 f-/ o2 f-4 o3 g+8 o2 e-4/ o2 a+4/ o4 a8 o2 f-8/ o2 f+8 o3 b+4 o4 e+8/ o3 a4 o4 e8/ o3 a- o3 g4 o4 a4/ o4 b-4 o3 e4/ o3 c+8 o3 d4/ o4 f-4/ o4 c/ o2 a+8 o4 a-8/ o2 a-4/ o2 g/ o3 b+4/ o2 c4 o4 e4 o2 c o2 b+8/ o3 g+8/ o2 b-/ o4 a/ o3 f4 o2 e+ o4 f4/ o4 b8 o4 g4/ o2 b4 a

piano: (tempo 5) o4 a8 o2 e4 o3 a+8 o4 e4 o2 g+ o2 d8 o4 g-16 o2 g16 o3 d- o3 g8 o4 a+16 o5 c+8 o3 f o2 f16 o5 g8 o3 b8 o4 a-4 o3 a- o3 d+16 o4 b+8 o4 b8 o3 b+4 o3 c16 o4 b o5 f+8 o3 d+ o2 b-8 o5 c- o4 g+8 o5 d+8 o5 f o4 d16 o5 d- o5 c+8 o2 c-4 o2 c o3 c+8 o2 b4 o5 e8 o4 c+ o5 g4 o2 a- o4 c o4 g-16 o4 a-8 o4 b+8 o3 e- o3 f+16 o3 b4 o2 g+4 o4 e4 o3 c+16 o4 c-4 o4 e+16 o2 f+4 o5 g-16 o2 a- o5 a+4 o5 e16 o3 f+16 o3 e- o4 d-4 o2 b+4 o5 e4 o2 b4 o2 g o5 a o3 e- o4 a-16 o3 d o5 c+8 o5 f8 o4 a8 o4 f+4 o2 e-4 o5 a8 o5 g16 o2 b+8 o4 d o2 f4 o5 g16 o3 d-8 o3 f o5 e+ o2 b- o5 b-16 o4 a16 o3 d+ o3 c+8 o4 f o2 c+16 o2 c-8 o2 g4 o2 a+16 o5 c8 o4 b o5 f16 o2 c o3 d- o2 e4 o5 f o2 e16 o5 f8 o5 a8 o2 a-16 o3 d16 o2 f4 o2 d4 o2 g- o3 d8 o4 c-16 o3 g16 o2 b8 o2 e+8 o2 g16 o5 e+ o5 a o4 e- o2 g16 o2 a o2 d8 o2 f4 o3 d+4 o3 a4 o4 d o5 f- o2 e16 o3 f-16 o5 c o2 d+4 o5 a+ o4 d16 o2 g- o2 d- o2 g16 o3 g o2 d4 o3 e+8 o2 f-8 o5 a8 o3 f+16 o5 a4 o4 e- o2 d- o3 f16 o5 a-4 o3 b4 o3 a16 o2 g8 o4 f16 o3 c8 o3 d-4 o3 c+ o3 d o4 e4 o5 f8 o5 d- o3 b8 o4 f16 o5 c+16 o3 b-16 o5 f8 o3 d+ o5 b8 o5 b16 o4 c o5 d- o2 d4 o2 d+ o3 e16 o3 g4 o2 c o2 a-16 o2 d o5 f o4 a o4 f+ o2 e4 o4 d+16 o3 g+ o4 f16 o2 e4 o4 b+8 o2 f8 o2 b-8 o2 c-16 o5 f o5 c8 o4 f-8 o5 b8 o2 b+16 o2 c+8 o5 d8 o4 f- o2 a4 o4 a16 o3 d o3 c+4 o5 e16 o2 c+8
