midi-pad-warm: (tempo! 5) (vol 100) o2 a-/f/f+ g+/g/e+ d-/b-/a a+/f-/c c-/e/a f-/d/f d-/f/d- b-/b/f- f+/f/c e-/f/c g/a/d e-/e-/f- d-/e/f+ g/g+/c e-/b-/b a/d/d+ g/f+/g- b/b/e e+/f/a a/f/f+ g-/b-/d- a/b+/d a+/c+/g f+/f/c e+/g/e a+/d-/f e-/f-/g+ d-/f-/g+ e/a/c d-/c/f- f-/d+/e d/f/e c/b/f c-/c/f b-/c+/a+ g/g+/g f+/g+/d d-/f/d- f/c/g e+/g+/e- f/b/g+ b-/e/c+ c-/e+/c- g/a+/b- e/c/d- d/d/f a/f/c b+/b-/d d-/g-/f- b-/f-/d g/d-/g- f/c-/b a+/d/c- c+/a/b+ a/g/b e+/f+/b e/c/b c-/g/g+ d/a/f b/d/d+ a/d+/g- c-/d-/f- d/e+/g c+/d/f+ f-/d/c a/e-/b b+/b/c d-/a/e e+/f+/b+ a/b+/f f+/e-/c- e+/d-/e- c+/d/g+ a-/b/c a+/c/f e+/g-/b c/d-/b- a+/e-/f+ a+/e/e- a+/d+/g+ f/g-/e e+/d/b- d+/g/f- g/f/d- c-/c/f c/f/f+ d/d+/b e/a+/a b/f/d- a/c/c- c/f+/d+ e/c-/d c/b/b- g/b/g c+/e+/d a+/a/a- d/g/d- c+/d/g b/g-/e+ a/g-/c c-/e/a d/c/f- a-/f/b- c/a/b- a/c-/d b/d+/e- c+/e+/b b-/c-/e f+/d/b+ g/e/a c/f/d b/g+/a c+/f+/e+ a/b/g d/d-/e f/b-/a b+/g-/e e/d+/d b+/g/e- g/b-/g c-/g-/b- f/f/a+ d/e-/b- e/g-/f+ a/e-/e a/b/g- a+/c/d b/f/d- e/f/d- a+/g-/f+ a/e+/d- c/a+/a- c/g-/b+ e/d+/a- d-/e-/c c+/c-/d+ g/f-/a- c+/a/f b-/a/g- a+/a/e a/b+/c+ d/b+/e- c-/a+/a+ c-/g/d- a/d-/a- d-/b/e e-/c-/b+ f/d-/d- f+/b/b g/a/f+ d-/f-/g f-/e+/d e/c/e e/g+/b c+/b/f+ f/d+/g e/d+/e c/a/e c/d/d+ e/f/g+

midi-pad-warm: (tempo! 6) (vol 100) o1 c+/g+/g b/b/d+ g+/e+/f d+/e/g- f+/g/d+ f+/f/e+ a/a/d g/d-/g d/a/f a-/c/g+ d-/g-/f e+/d-/e d-/g/a b/d+/e c+/d/e- e-/c-/c+ c/b-/a+ g-/d+/b+ e/f+/f- a/a/d- g+/d-/g- b-/a+/d e/g+/b- f+/g/b c-/b/g b/b+/c e-/d/d f-/a/d+ b-/c+/c b/b-/e a+/g/d+ b/g/d+ b-/g/g a-/e/e c/g+/c+ g-/b-/c d/g-/e- d/g-/f e+/g-/a d/g+/f b/e-/b+ c+/d-/c b/b+/g f/g+/e g+/e/a f+/c+/f- d+/f-/d b-/e+/b c/b-/d- e/a/e g+/f+/b+ c-/e+/e f/e/e+ f/a-/c- a/a-/c+ c/e-/g+ a-/e+/e f+/d+/b+ g+/a+/d e+/d/g d/e/a+ f/c/g+ e/b-/b b/f+/d+ f/a/b g-/f/a a/d/g- d-/f-/b f-/c+/g e+/f/b- f+/c+/d a-/g+/f+ d/d+/a- c/e/a b-/c-/g+ f/g+/f c/a/d+ d+/e-/a- c+/d/a g/a/f d+/c/c a+/d+/e e/a/e a/d-/a d/g/f e-/g-/b g-/g+/c e/e/d- b/a-/g- e-/g-/e- f-/g+/g- g/c/c+ e+/g/d+ c-/d/c c/c/e d/e+/c+ b/e/g f+/e-/e+ a/g+/g- f-/e-/b c+/g+/b a/e/g- a/f/b+ e+/c/b- d-/a/e- d/d/d b-/b+/g- f/a+/a- e/e/e e-/a-/e+ a/g+/b g/b-/f g/g-/f+ g+/g/c d+/d/g c/d+/a- a+/b/c e+/a-/g+ c+/g-/e+ f-/b/c- f/a/e e-/a/b- f+/b/g g/a/b- g/d/d c/a/c- f/a-/c f/g/a b/e+/c g-/e/c d+/c+/e- f/d/f+ g/b+/g+ e/b/d+ b-/b/e+ g/b/a- c+/a/a+ e/b/g f+/b-/f e-/d+/d g-/a-/e f-/d/b- g/b-/b c/b/g+ e-/d/f a/b-/d g/f/a+ c+/c/c c/f+/f+ e+/g+/f- g/a/c+ d/c/g+ d+/b/d- g/e/c- f+/e/e- b+/a/d- f+/c/g- g/b+/f g-/a-/a b-/d+/g+
